X: 30360
T: Old Pigeon On The Gate, The
R: reel
M: 4/4
K: Gmajor
|:Bc|dGGG dGeG|dGeG dBAB|cFFF AFFF|B/c/ded cABc|
dGGG dGeG|dGeG dcAG|FGAB cded|fdcA BG:|
|:Bc|dggg fage|dggg b2ag|fdde fde^c|defg a2ge|
dggg fage|dggg b2ag|fdde fde/f/g|fdcA BG:|

